svgs/queue-light.svg

<svg width="400" height="400" viewBox="0 0 400 400" fill="none" xmlns="http://www.w3.org/2000/svg">
<g id="queue">
<g id="queue_2">
<path id="Path" d="M315.446 111.859C304.554 51.1275 215.123 7.20449 130.987 30.2165C54.8447 51.0274 10.1787 100.653 26.2665 167.088C30.5632 184.797 32.7615 193.002 43.0537 210.311C51.9469 225.218 56.3436 245.229 50.1483 261.938L44.4526 279.547C43.3535 281.948 45.8516 284.449 47.7501 282.749L69.7334 267.541C87.6197 255.834 107.105 253.133 117.397 256.535C143.677 265.139 196.237 263.438 226.614 253.833C301.956 229.721 328.736 184.997 315.446 111.859Z" fill="#F0F3F5"/>
<path id="Path_2" d="M167.259 260.835C174.653 220.014 234.807 190.399 291.364 205.907C342.525 219.914 372.602 253.231 361.811 297.955C358.913 309.861 356.814 315.364 349.82 326.97C343.824 336.975 342.326 350.482 346.522 361.688L349.52 373.494C350.22 375.095 348.521 376.796 347.322 375.595L331.834 366.191C319.743 358.386 305.653 355.485 294.962 357.886C276.875 361.988 247.398 362.589 226.913 356.085C176.352 340.077 158.366 309.961 167.259 260.835Z" fill="#F0F3F5"/>
<path id="Path_3" d="M247.498 146.479L148.174 143.677C109.503 142.777 76.8281 177.395 76.8281 220.718V297.158C76.8281 302.36 81.0249 306.462 86.0211 306.162L247.598 298.658C280.573 296.757 306.553 264.04 306.553 226.02V217.116C306.453 178.996 280.473 147.279 247.498 146.479Z" fill="#FFD493"/>
<path id="Shape (Stroke)" fill-rule="evenodd" clip-rule="evenodd" d="M123.992 192.38C124.004 191.275 124.909 190.389 126.012 190.401L265.007 191.901C266.11 191.913 266.995 192.819 266.983 193.924C266.971 195.029 266.067 195.915 264.963 195.903L125.969 194.402C124.866 194.39 123.981 193.485 123.992 192.38ZM264.986 228.12L125.992 228.22C124.889 228.221 123.993 227.326 123.992 226.221C123.992 225.115 124.886 224.219 125.989 224.218L264.984 224.118C266.087 224.117 266.983 225.012 266.983 226.118C266.984 227.223 266.09 228.119 264.986 228.12ZM266.983 256.396C267.004 257.501 266.127 258.414 265.024 258.436L126.03 261.137C124.926 261.158 124.014 260.28 123.993 259.175C123.971 258.07 124.849 257.157 125.952 257.136L264.946 254.434C266.05 254.413 266.962 255.291 266.983 256.396Z" fill="#DD7E10"/>
<path id="Path_4" opacity="0.7" d="M247.498 146.477L207.629 145.477C204.931 152.781 203.432 160.885 203.432 169.489V173.091C203.432 207.509 227.514 235.524 256.092 235.224L305.954 234.723C306.254 231.822 306.453 228.92 306.453 225.919V217.014C306.453 178.994 280.473 147.278 247.498 146.477Z" fill="#DCA553"/>
<g id="Group">
<path id="Path_5" d="M329.735 96.7526L270.38 93.3508C242.002 91.75 218.02 118.364 218.02 152.482V156.084C218.02 188.701 239.804 215.315 266.483 217.416L266.384 217.516C266.483 217.516 351.818 216.715 367.706 216.515C372.303 216.515 376 212.713 376 208.111V156.084C376 124.967 355.516 98.1533 329.735 96.7526Z" fill="#FFBE5C"/>
<path id="Shape" fill-rule="evenodd" clip-rule="evenodd" d="M277.975 155.385C277.975 150.682 274.478 146.88 270.181 146.98C265.884 146.98 262.387 150.782 262.387 155.485C262.387 160.187 265.884 163.889 270.181 163.889C274.378 163.889 277.975 160.087 277.975 155.385ZM309.151 156.186C309.151 151.484 305.654 147.682 301.257 147.682C296.861 147.682 293.363 151.584 293.363 156.286C293.363 160.989 296.861 164.791 301.257 164.791C305.654 164.691 309.151 160.889 309.151 156.186ZM332.633 148.381C337.03 148.381 340.627 152.183 340.627 156.885C340.627 161.688 337.13 165.49 332.633 165.49C328.237 165.49 324.64 161.688 324.64 156.985C324.64 152.283 328.237 148.381 332.633 148.381Z" fill="white"/>
</g>
<g id="Group_2">
<path id="Path (Stroke)" fill-rule="evenodd" clip-rule="evenodd" d="M42.4542 58.2312C42.4542 43.1188 54.7402 30.8169 69.8333 30.8169H148.473C163.664 30.8169 175.845 43.0132 175.952 58.1169L175.952 58.1312V87.8467C175.952 102.286 164.736 114.16 150.572 115.189V131.57C150.572 132.379 150.085 133.109 149.338 133.418C148.591 133.728 147.732 133.557 147.16 132.985L129.459 115.261H69.8333C54.7402 115.261 42.4542 102.959 42.4542 87.8467V58.2312ZM69.8333 34.819C56.9477 34.819 46.4511 45.3291 46.4511 58.2312V87.8467C46.4511 100.749 56.9477 111.259 69.8333 111.259H130.287C130.817 111.259 131.326 111.47 131.7 111.845L146.575 126.739V113.26C146.575 112.155 147.47 111.259 148.573 111.259C161.459 111.259 171.956 100.749 171.956 87.8467V58.1381C171.859 45.2306 161.459 34.819 148.473 34.819H69.8333Z" fill="#999999"/>
<path id="Oval (Stroke)" fill-rule="evenodd" clip-rule="evenodd" d="M71.9317 73.7409C71.9317 68.8782 75.8686 64.9363 80.725 64.9363C85.5814 64.9363 89.5183 68.8782 89.5183 73.7409C89.5183 78.6035 85.5814 82.5455 80.725 82.5455C75.8686 82.5455 71.9317 78.6035 71.9317 73.7409ZM80.725 68.9384C78.0761 68.9384 75.9287 71.0885 75.9287 73.7409C75.9287 76.3932 78.0761 78.5434 80.725 78.5434C83.374 78.5434 85.5213 76.3932 85.5213 73.7409C85.5213 71.0885 83.374 68.9384 80.725 68.9384Z" fill="#999999"/>
<path id="Oval (Stroke)_2" fill-rule="evenodd" clip-rule="evenodd" d="M100.41 73.7409C100.41 68.8782 104.347 64.9363 109.203 64.9363C114.06 64.9363 117.997 68.8782 117.997 73.7409C117.997 78.6035 114.06 82.5455 109.203 82.5455C104.347 82.5455 100.41 78.6035 100.41 73.7409ZM109.203 68.9384C106.554 68.9384 104.407 71.0885 104.407 73.7409C104.407 76.3932 106.554 78.5434 109.203 78.5434C111.852 78.5434 114 76.3932 114 73.7409C114 71.0885 111.852 68.9384 109.203 68.9384Z" fill="#999999"/>
<path id="Oval (Stroke)_3" fill-rule="evenodd" clip-rule="evenodd" d="M128.788 73.7409C128.788 68.8782 132.725 64.9363 137.581 64.9363C142.438 64.9363 146.374 68.8782 146.374 73.7409C146.374 78.6035 142.438 82.5455 137.581 82.5455C132.725 82.5455 128.788 78.6035 128.788 73.7409ZM137.581 68.9384C134.932 68.9384 132.785 71.0885 132.785 73.7409C132.785 76.3932 134.932 78.5434 137.581 78.5434C140.23 78.5434 142.377 76.3932 142.377 73.7409C142.377 71.0885 140.23 68.9384 137.581 68.9384Z" fill="#999999"/>
</g>
<path id="Shape (Stroke)_2" fill-rule="evenodd" clip-rule="evenodd" d="M334.132 266.04C335.235 266.04 336.13 266.936 336.13 268.041V275.345C336.13 276.45 335.235 277.346 334.132 277.346C333.028 277.346 332.133 276.45 332.133 275.345V268.041C332.133 266.936 333.028 266.04 334.132 266.04ZM317.045 283.15C317.045 282.045 317.939 281.149 319.043 281.149H326.337C327.441 281.149 328.336 282.045 328.336 283.15C328.336 284.255 327.441 285.151 326.337 285.151H319.043C317.939 285.151 317.045 284.255 317.045 283.15ZM340.027 283.15C340.027 282.045 340.922 281.149 342.026 281.149H349.32C350.424 281.149 351.318 282.045 351.318 283.15C351.318 284.255 350.424 285.151 349.32 285.151H342.026C340.922 285.151 340.027 284.255 340.027 283.15ZM334.132 288.45C335.235 288.45 336.13 289.346 336.13 290.451V298.355C336.13 299.46 335.235 300.356 334.132 300.356C333.028 300.356 332.133 299.46 332.133 298.355V290.451C332.133 289.346 333.028 288.45 334.132 288.45Z" fill="#999999"/>
</g>
</g>
</svg>

<svg xmlns="http://www.w3.org/2000/svg" width="400" height="400" fill="none" viewBox="0 0 400 400"><path fill="#F0F3F5" d="M315.446 111.859C304.554 51.128 215.123 7.204 130.987 30.217c-76.142 20.81-120.808 70.436-104.72 136.871 4.296 17.709 6.494 25.914 16.787 43.223 8.893 14.907 13.29 34.918 7.094 51.627l-5.695 17.609c-1.1 2.401 1.399 4.902 3.297 3.202l21.983-15.208c17.887-11.707 37.372-14.408 47.664-11.006 26.28 8.604 78.84 6.903 109.217-2.702 75.342-24.112 102.122-68.836 88.832-141.974"/><path fill="#F0F3F5" d="M167.259 260.835c7.394-40.821 67.548-70.436 124.105-54.928 51.161 14.007 81.238 47.324 70.447 92.048-2.898 11.906-4.997 17.409-11.991 29.015-5.996 10.005-7.494 23.512-3.298 34.718l2.998 11.806c.7 1.601-.999 3.302-2.198 2.101l-15.488-9.404c-12.091-7.805-26.181-10.706-36.872-8.305-18.087 4.102-47.564 4.703-68.049-1.801-50.561-16.008-68.547-46.124-59.654-95.25"/><path fill="#FFD493" d="m247.498 146.479-99.324-2.802c-38.671-.9-71.346 33.718-71.346 77.041v76.44c0 5.202 4.197 9.304 9.193 9.004l161.577-7.504c32.975-1.901 58.955-34.618 58.955-72.638v-8.904c-.1-38.12-26.08-69.837-59.055-70.637"/><path fill="#DD7E10" fill-rule="evenodd" d="M123.992 192.38a2 2 0 0 1 2.02-1.979l138.995 1.5a2 2 0 0 1 1.976 2.023 2 2 0 0 1-2.02 1.979l-138.994-1.501a2 2 0 0 1-1.977-2.022m140.994 35.74-138.994.1a2 2 0 0 1-.003-4.002l138.995-.1a2 2 0 0 1 1.999 2 2 2 0 0 1-1.997 2.002m1.997 28.276a2 2 0 0 1-1.959 2.04l-138.994 2.701a2 2 0 0 1-2.037-1.962 2 2 0 0 1 1.959-2.039l138.994-2.702a2 2 0 0 1 2.037 1.962" clip-rule="evenodd"/><path fill="#DCA553" d="m247.498 146.477-39.869-1c-2.698 7.304-4.197 15.408-4.197 24.012v3.602c0 34.418 24.082 62.433 52.66 62.133l49.862-.501c.3-2.901.499-5.803.499-8.804v-8.905c0-38.02-25.98-69.736-58.955-70.537" opacity=".7"/><path fill="#FFBE5C" d="M329.735 96.753 270.38 93.35c-28.378-1.601-52.36 25.013-52.36 59.131v3.602c0 32.617 21.784 59.231 48.463 61.332l-.099.1c.099 0 85.434-.801 101.322-1.001 4.597 0 8.294-3.802 8.294-8.404v-52.027c0-31.117-20.484-57.93-46.265-59.331"/><path fill="#fff" fill-rule="evenodd" d="M277.975 155.385c0-4.703-3.497-8.505-7.794-8.405-4.297 0-7.794 3.802-7.794 8.505 0 4.702 3.497 8.404 7.794 8.404 4.197 0 7.794-3.802 7.794-8.504m31.176.801c0-4.702-3.497-8.504-7.894-8.504-4.396 0-7.894 3.902-7.894 8.604 0 4.703 3.498 8.505 7.894 8.505 4.397-.1 7.894-3.902 7.894-8.605m23.482-7.805c4.397 0 7.994 3.802 7.994 8.504 0 4.803-3.497 8.605-7.994 8.605-4.396 0-7.993-3.802-7.993-8.505 0-4.702 3.597-8.604 7.993-8.604" clip-rule="evenodd"/><g fill="#999" fill-rule="evenodd" clip-rule="evenodd"><path d="M42.454 58.231c0-15.112 12.286-27.414 27.38-27.414h78.639c15.191 0 27.372 12.196 27.479 27.3v29.73c0 14.439-11.216 26.313-25.38 27.342v16.381a2 2 0 0 1-3.412 1.415l-17.701-17.724H69.833c-15.093 0-27.379-12.302-27.379-27.414zm27.38-23.412c-12.886 0-23.383 10.51-23.383 23.412v29.616c0 12.902 10.497 23.412 23.382 23.412h60.454c.53 0 1.039.211 1.413.586l14.875 14.894V113.26a2 2 0 0 1 1.998-2.001c12.886 0 23.383-10.51 23.383-23.412V58.138c-.097-12.907-10.497-23.319-23.483-23.319z"/><path d="M71.932 73.74c0-4.862 3.937-8.804 8.793-8.804s8.793 3.942 8.793 8.805-3.937 8.805-8.793 8.805-8.793-3.943-8.793-8.805m8.793-4.802a4.8 4.8 0 0 0-4.796 4.803 4.8 4.8 0 0 0 4.796 4.802 4.8 4.8 0 0 0 4.796-4.802 4.8 4.8 0 0 0-4.796-4.803m19.685 4.801c0-4.862 3.937-8.804 8.793-8.804 4.857 0 8.794 3.942 8.794 8.805s-3.937 8.805-8.794 8.805c-4.856 0-8.793-3.943-8.793-8.805m8.793-4.802a4.8 4.8 0 0 0-4.796 4.803 4.8 4.8 0 0 0 4.796 4.802A4.8 4.8 0 0 0 114 73.741a4.8 4.8 0 0 0-4.797-4.803m19.585 4.802c0-4.862 3.937-8.804 8.793-8.804 4.857 0 8.793 3.942 8.793 8.805s-3.936 8.805-8.793 8.805-8.793-3.943-8.793-8.805m8.793-4.802a4.8 4.8 0 0 0-4.796 4.803 4.8 4.8 0 0 0 4.796 4.802 4.8 4.8 0 0 0 4.796-4.802 4.8 4.8 0 0 0-4.796-4.803"/></g><path fill="#999" fill-rule="evenodd" d="M334.132 266.04a2 2 0 0 1 1.998 2.001v7.304a2 2 0 0 1-1.998 2.001 2 2 0 0 1-1.999-2.001v-7.304a2 2 0 0 1 1.999-2.001m-17.087 17.11a2 2 0 0 1 1.998-2.001h7.294a2 2 0 0 1 0 4.002h-7.294a2 2 0 0 1-1.998-2.001m22.982 0a2 2 0 0 1 1.999-2.001h7.294a2 2 0 0 1 1.998 2.001 2 2 0 0 1-1.998 2.001h-7.294a2 2 0 0 1-1.999-2.001m-5.895 5.3a2 2 0 0 1 1.998 2.001v7.904a2 2 0 0 1-1.998 2.001 2 2 0 0 1-1.999-2.001v-7.904a2 2 0 0 1 1.999-2.001" clip-rule="evenodd"/></svg>
